X: 1559
T: Kildare Fancy, The
R:hornpipe
N:"Collected by Ennis"
B:O'Neill's 1559
Z:Transcribed by Michael Hogan
M:2/4
L:1/16
Q:80
K:D
d>B | A>FD>F A>Fd>B | (3ABA F>A f>ed>c | B>AB>f g>ef>d | e>dc>B A2d>B |
A>FD>F A>Fd>B | (3ABA F>A f>ed>c | B>AB>f g>ef>d | e>c (3ABc d2 :|
|:d>e| f>dc>d B>dA>F | D>dc>d f>dc>d | e>A (3AAA f>A (3AAA | (3efe (3dcB A2d>e |
f>dc>d B>dA>F | D>dc>d f>dc>d | e>Af>A g>Af>A |  e>c (3ABc d2 :||


